X: 86
T: Fransk Perial (Française imperiale)
B:[[Notböcker/Melodier til gamle danske Almuedanse for Violin solo]]
O:Danmark
Z:Søren Bak Vestergaard
M: 6/8
L: 1/8
K: D
(A/d/)|f2 f fef|g3 e2 (c/d/)|e2 e ede|f3 d2 (d/f/)|a2 a agf|\
b2 b bag|faf ege|d2 f d2:| |:(A/c/)|(.e2 .e) gfe|f2 a a2 (A/c/)|\
(.e2 .e) gfe|f2 a a2 f|g2 g bag|f2 f agf|e2 e gfe|(.d2 .f) d2:|

